SF_Symbols/music.mic.svg

<?xml version="1.0" encoding="UTF-8"?>
<svg xmlns="http://www.w3.org/2000/svg" xmlns:xlink="http://www.w3.org/1999/xlink" width="24" height="24" viewBox="0 0 24 24" version="1.1">
<g id="surface1">
<path style=" stroke:none;fill-rule:nonzero;fill:rgb(100%,100%,100%);fill-opacity:1;" d="M 12.304688 24 C 12.601562 24 12.851562 23.898438 13.054688 23.695312 C 13.265625 23.492188 13.371094 23.242188 13.371094 22.945312 L 13.371094 14.25 L 16.875 11.015625 C 17.539062 11.109375 18.210938 11.019531 18.890625 10.746094 C 19.578125 10.472656 20.230469 10.027344 20.847656 9.410156 L 14.402344 2.953125 C 13.785156 3.570312 13.34375 4.214844 13.078125 4.886719 C 12.820312 5.558594 12.738281 6.234375 12.832031 6.914062 L 1.933594 18.644531 C 1.714844 18.886719 1.597656 19.160156 1.582031 19.464844 C 1.566406 19.769531 1.695312 20.0625 1.96875 20.34375 L 0.46875 22.277344 C 0.398438 22.371094 0.363281 22.480469 0.363281 22.605469 C 0.363281 22.730469 0.417969 22.84375 0.527344 22.945312 L 0.867188 23.296875 C 0.96875 23.390625 1.078125 23.441406 1.195312 23.449219 C 1.320312 23.457031 1.4375 23.421875 1.546875 23.34375 L 3.480469 21.832031 C 3.746094 22.105469 4.03125 22.234375 4.335938 22.21875 C 4.648438 22.203125 4.921875 22.085938 5.15625 21.867188 L 11.238281 16.242188 L 11.238281 22.945312 C 11.238281 23.242188 11.339844 23.492188 11.542969 23.695312 C 11.753906 23.898438 12.007812 24 12.304688 24 Z M 3.140625 19.605469 L 13.476562 8.636719 C 13.570312 8.808594 13.675781 8.976562 13.792969 9.140625 C 13.917969 9.296875 14.054688 9.453125 14.203125 9.609375 C 14.34375 9.757812 14.492188 9.898438 14.648438 10.03125 C 14.804688 10.15625 14.960938 10.265625 15.117188 10.359375 L 4.21875 20.683594 Z M 15.574219 1.769531 L 22.03125 8.226562 C 22.71875 7.546875 23.183594 6.820312 23.425781 6.046875 C 23.675781 5.273438 23.695312 4.503906 23.484375 3.738281 C 23.28125 2.972656 22.851562 2.261719 22.195312 1.605469 C 21.539062 0.957031 20.828125 0.53125 20.0625 0.328125 C 19.304688 0.117188 18.539062 0.132812 17.765625 0.375 C 16.992188 0.617188 16.261719 1.082031 15.574219 1.769531 Z M 15.574219 1.769531 "/>
</g>
</svg>

<svg xmlns="http://www.w3.org/2000/svg" width="24" height="24"><path style="stroke:none;fill-rule:nonzero;fill:#fff;fill-opacity:1" d="M12.305 24c.297 0 .547-.102.75-.305.207-.195.32-.468.316-.75V14.25l3.504-3.234c.664.093 1.336.004 2.016-.27.687-.273 1.34-.719 1.957-1.336l-6.446-6.457c-.617.617-1.058 1.262-1.324 1.934a4.034 4.034 0 0 0-.246 2.027L1.934 18.644c-.211.223-.336.512-.352.82-.016.306.113.599.387.88l-1.5 1.933a.523.523 0 0 0-.106.328c0 .125.055.239.164.34l.34.352c.102.094.211.144.328.152a.542.542 0 0 0 .352-.105l1.933-1.512c.266.273.551.402.856.387.312-.016.586-.133.82-.352l6.082-5.625v6.703c0 .297.102.547.305.75.21.203.465.305.762.305ZM3.14 19.605 13.477 8.637c.093.172.199.34.316.504.125.156.262.312.41.468.14.149.29.29.445.422.157.125.313.235.47.328l-10.9 10.325ZM15.574 1.77l6.457 6.457c.688-.68 1.153-1.407 1.395-2.18.25-.774.27-1.543.058-2.309-.203-.765-.632-1.476-1.289-2.133C21.54.957 20.828.531 20.062.328a3.967 3.967 0 0 0-2.296.047c-.774.242-1.504.707-2.192 1.395Zm0 0"/></svg>
